/* XPM */
static char *_f0ca630a71541c3da40397c83f3e01f0iN4aDgHLwx3pSE4[] = {
/* columns rows colors chars-per-pixel */
"32 32 6 1 ",
"  c #241816",
". c #222537",
"X c #465870",
"o c #66849A",
"O c #9ACED1",
"+ c #E5F4F3",
/* pixels */
".+OOOooo.+OOOooo.+OOOooo.+OOOooo",
".OXXXXXX.OXXXXXX.OXXXXXX.OXXXXXX",
".OXXXXXX.OXXXXXX.OXXXXXX.OXXXXXX",
" OXXXXXX OXXXXXX OXXXXXX OXXXXXX",
".oXXXXXX.oXXXXXX.oXXXXXX.oXXXXXX",
".oXXXXXX.oXXXXXX.oXXXXXX.oXXXXXX",
".oXXXXXX.oXXXXXX.oXXXXXX.oXXXXXX",
" ... ... ... ... ... ... ... ...",
".+OOOooo.+OOOooo.+OOOooo.+OOOooo",
".OXXXXXX.OXXXXXX.OXXXXXX.OXXXXXX",
".OXXXXXX.OXXXXXX.OXXXXXX.OXXXXXX",
" OXXXXXX OXXXXXX OXXXXXX OXXXXXX",
".oXXXXXX.oXXXXXX.oXXXXXX.oXXXXXX",
".oXXXXXX.oXXXXXX.oXXXXXX.oXXXXXX",
".oXXXXXX.oXXXXXX.oXXXXXX.oXXXXXX",
" ... ... ... ... ... ... ... ...",
".+OOOooo.+OOOooo.+OOOooo.+OOOooo",
".OXXXXXX.OXXXXXX.OXXXXXX.OXXXXXX",
".OXXXXXX.OXXXXXX.OXXXXXX.OXXXXXX",
" OXXXXXX OXXXXXX OXXXXXX OXXXXXX",
".oXXXXXX.oXXXXXX.oXXXXXX.oXXXXXX",
".oXXXXXX.oXXXXXX.oXXXXXX.oXXXXXX",
".oXXXXXX.oXXXXXX.oXXXXXX.oXXXXXX",
" ... ... ... ... ... ... ... ...",
".+OOOooo.+OOOooo.+OOOooo.+OOOooo",
".OXXXXXX.OXXXXXX.OXXXXXX.OXXXXXX",
".OXXXXXX.OXXXXXX.OXXXXXX.OXXXXXX",
" OXXXXXX OXXXXXX OXXXXXX OXXXXXX",
".oXXXXXX.oXXXXXX.oXXXXXX.oXXXXXX",
".oXXXXXX.oXXXXXX.oXXXXXX.oXXXXXX",
".oXXXXXX.oXXXXXX.oXXXXXX.oXXXXXX",
" ... ... ... ... ... ... ... ..."
};
