/* XPM */
static char *_ab29c903b314e3bffdace2d0e53b444T4pLC7eVSASLB9Ak[] = {
/* columns rows colors chars-per-pixel */
"32 32 5 1 ",
"  c #18101C",
". c #222537",
"X c #465870",
"o c #66849A",
"O c #9ACED1",
/* pixels */
"Oooooo  ........Oooooo  ........",
"Oooooo   .......Oooooo   .......",
"Oooooo  ........Oooooo  ........",
"Oooooo   .......Oooooo   .......",
"Oooooo  ........Oooooo  ........",
"Oooooo   .......Oooooo   .......",
"Oooooo  ........Oooooo  ........",
"Oooooo   .......Oooooo   .......",
"Oooooo  ........Oooooo  ........",
"Oooooo   .......Oooooo   .......",
"Oooooo  ........Oooooo  ........",
"Oooooo   .......Oooooo   .......",
"Oooooo  ........Oooooo  ........",
"Oooooo   .......Oooooo   .......",
"OoXoXo  ........OXoXoX  ........",
"OXoXoX   .......OoXoXo   .......",
"oXXXXX  ........oXXXXX  ........",
"oXXXXX   .......oXXXXX   .......",
"oXXXXX  ........oXXXXX  ........",
"oXXXXX   .......oXXXXX   .......",
"oXXXXX  ........oXXXXX  ........",
"oXXXXX   .......oXXXXX   .......",
"oXXXXX  ........oXXXXX  ........",
"oXXXXX   .......oXXXXX   .......",
"oXXXXX  . ......oXXXXX  . ......",
"oXXXXX   . .....oXXXXX   . .....",
"oXXXXX  . . ....oXXXXX  . . ....",
"oXXXXX   . . ...oXXXXX   . . ...",
"oXXXXXoooooooooooXXXXXoooooooooo",
"XXXXXXXXXXXXXXXXXXXXXXXXXXXXXXXX",
"oooooooooooooooooooooooooooooooo",
"oooooooooooooooooooooooooooooooo"
};
