/* XPM */
static char *_eaeba15a4784186b39c3e4a694fdbf0xVd0lwXbjiecEGMw[] = {
/* columns rows colors chars-per-pixel */
"32 32 4 1 ",
"  c #14101C",
". c #2A1B1A",
"X c #574833",
"o c #A09865",
/* pixels */
"..  ..     ...           XXXX  .",
"           ..  XXXXXXXXX  XXX.  ",
"           .  XoXXXXX...X  ...  ",
"             XoXX.X......X  X.  ",
"            Xo...      ...X  X..",
"XXXX.....  Xo.X.  ..     ..X  XX",
"oooXXXXX  Xo.X.   .. .......X  o",
"         XXoXX.      .....  .X  ",
"         XXXXX.      .....  ..  ",
"XooooXXX  XX...             .  X",
"XXXX.....  X.X..     ..       Xo",
"XX...    .  ..X..    ..      XoX",
"X         .  X....          Xo.X",
"  ..  ...  .  X.......     Xo..X",
"  ..  ....  .  XoooooXXX  XX.XX.",
"      ....   .           XX..XX.",
"      ..                 XXX....",
"               XoooooXXX  X.X...",
"              Xo........X  .....",
"             Xo.XXX......X  ..X.",
"            Xo.X.XX.......X  ...",
".          Xo.X............X  ..",
"..        XXXX.XX... ...    .  .",
"         XXXXX.XX.... ..     .  ",
"         XX............ ..      ",
"XooXXXXX  X....... .... ..     X",
"oXXX  ..X  X...... ....       Xo",
"   ..  ..X  X......          Xo.",
" ....     X  X.....         Xo. ",
"  ....     X  X...         XX.  ",
"  ....     .X  XXXXXXXXX  XX.   ",
".. ...     ..X           XX..  ."
};
