/* XPM */
static char *result[] = {
/* columns rows colors chars-per-pixel */
"32 32 5 1 ",
"  c #273042",
". c #475775",
"X c #5D77AA",
"o c #DADBB3",
"O c #FDFEFE",
/* pixels */
" .XXXXXXXXXXXX. .XXXXXXXXXXXXXX.",
".oOOOOOOOOOOOOO.oOOOOOOOOOOOOOOo",
".oOOOOOOOOOOOOOXoOOOOOOOOOOOOOOo",
".oOOOOOOOOOOOOO.oOOOOOOOOOOOOOOo",
" .XXXXXXXXXXXX. .XXXXXXXXXXXXXX.",
".oOOOOOOOOOOOOO.oOOOOOOOOOOOOOOo",
".oOOOOOOOOOOOOOXoOOOOOOOOOOOOOOo",
".oOOOOOOOOOOOOO.oOOOOOOOOOOOOOOo",
" .XXXXXXXXXXXX. .XXXXXXXXXXXXXX.",
".oOOOOOOOOOOOOO.oOOOOOOOOOOOOOOo",
".oOOOOOOOOOOOOOXoOOOOOOOOOOOOOOo",
".oOOOOOOOOOOOOO.oOOOOOOOOOOOOOOo",
" .XXXXXXXXXXXX. .XXXXXXXXXXXXXX.",
".oOOOOOOOOOOOOO.oOOOOOOOOOOOOOOo",
".oOOOOOOOOOOOOOXoOOOOOOOOOOOOOOo",
".oOOOOOOOOOOOOO.oOOOOOOOOOOOOOOo",
" .XXXXXXXXXXXX. .XXXXXXXXXXXXXX.",
".oOOOOOOOOOOOOO.oOOOOOOOOOOOOOOo",
".oOOOOOOOOOOOOOXoOOOOOOOOOOOOOOo",
".oOOOOOOOOOOOOO.oOOOOOOOOOOOOOOo",
" .XXXXXXXXXXXX. .XXXXXXXXXXXXXX.",
".oOOOOOOOOOOOOO.oOOOOOOOOOOOOOOo",
".oOOOOOOOOOOOOOXoOOOOOOOOOOOOOOo",
".oOOOOOOOOOOOOO.oOOOOOOOOOOOOOOo",
" .XXXXXXXXXXXX. .XXXXXXXXXXXXXX.",
".oOOOOOOOOOOOOO.oOOOOOOOOOOOOOOo",
".oOOOOOOOOOOOOOXoOOOOOOOOOOOOOOo",
".oOOOOOOOOOOOOO.oOOOOOOOOOOOOOOo",
" .XXXXXXXXXXXX. .XXXXXXXXXXXXXX.",
".oOOOOOOOOOOOOO.oOOOOOOOOOOOOOOo",
".oOOOOOOOOOOOOOXoOOOOOOOOOOOOOOo",
".oOOOOOOOOOOOOO.oOOOOOOOOOOOOOOo"
};
