/* XPM */
static char *_3daa65bfd1b4355eefaf4caa9594788PRK6xA70O6gdEgRn[] = {
/* columns rows colors chars-per-pixel */
"32 32 9 1 ",
"  c #17331C",
". c #1C3418",
"X c #172520",
"o c #2B4D26",
"O c #436D3B",
"+ c #658645",
"@ c #83A860",
"# c #BFC775",
"$ c #E3EBAB",
/* pixels */
"O+#$$$$$$$$$#+OoO+#$$$$$$$$$#+Oo",
"@#$$$$$#$#$###@o@#$$$$$$$$#$$#@o",
"+@###########@+o+@###########@+o",
"O+@@@@@+@+@+@+OoO+@@@@@+@+@+@+Oo",
"oo...........ooooo...........ooo",
"o@############ooo@############oo",
"+#############Oo+#############Oo",
"+@#@+#@+#@#@#@Oo+@#@+#@+#@#@#@Oo",
"+@@@+@+O+@++@+Oo+@@@+@+O+@++@+Oo",
"+@@@+@+O+@+O++Oo+@+O+@+O+@O+@+Oo",
"O+@@O+OO+@OOO  .O+OOO+OO+OOO+OO.",
"................................",
"...oooooooooo......oooooooooo...",
"O+#$$$$$$$$$$+O.O+#$$$$$$$$$#+O.",
"@#$$$$$$$#$###@o@#$$$$$#$#$#$#@.",
"+@###########@+o+@###########@+.",
"O+@@@@@+@+@+@+OXO+@@@@@+@+@+@+Oo",
"oo...........ooXoo...........ooo",
"o@############oXo@############oo",
"+#############OX+#############Oo",
"+@#@+#@+#@#@#@OX+@#@+#@+#@#@#@Oo",
"+@@@+@+O+@++@+OX+@@@+@+O+@++@+Oo",
"+@@@+@+O+@++@+OX+@@@+@+O+@++@+Oo",
"O+@@O+OO+@++@OOXO+@@O+OO+@++@OOo",
"O++@O+OO+++O+OOoO++@O+OO+++O+OOo",
"OO++OOOo++OO+OOoOO++OOoO++OO+OOo",
"OO++OOooOOOo+OoXoO++OooOOOoO+OOo",
"OOOOooooOoooOOXXoOOOooooOOooOOoX",
"oooooooooooooooXoooooooooooooooX",
"###########@#######@#####@##@@##",
"++++@@@@@+@@@@@@@@@@@@@@@@@@+@+@",
"OOOOO+++OOO+++++++O+OO+O+++OOOOO"
};
